lib/healthicons/icons/outline/specialties/medical_records.svg

<svg fill="none" height="48" viewBox="0 0 48 48" width="48" xmlns="http://www.w3.org/2000/svg"><g clip-rule="evenodd" fill="#333" fill-rule="evenodd"><path d="m21 10c-1.1046 0-2 .8954-2 2h-3c-1.1046 0-2 .8954-2 2v22c0 1.1046.8954 2 2 2h16c1.1046 0 2-.8954 2-2v-22c0-1.1046-.8954-2-2-2h-3c0-1.1046-.8954-2-2-2zm0 2h6v2h-6zm3.5572 16-2.4934 6.649c-.1939.5171.0681 1.0935.5852 1.2874.5171.194 1.0935-.068 1.2875-.5852l1.2583-3.3557h2.6106l1.2584 3.3557c.1939.5172.7703.7792 1.2874.5852.5172-.1939.7792-.7703.5853-1.2874l-2.4934-6.649h2.8582c.5523 0 1-.4477 1-1s-.4477-1-1-1h-4.2822c-.0127-.0002-.0255-.0002-.0382 0h-.9616c-.0127-.0002-.0254-.0002-.0381 0h-4.981c-.5522 0-1 .4477-1 1s.4478 1 1 1zm6.4428-8.76h-14v-2h14zm-14 4.16h5v-2h-5zm11.5-.4c0 1.1046-.8954 2-2 2s-2-.8954-2-2 .8954-2 2-2 2 .8954 2 2z"/><path d="m39 8h-30c-.55229 0-1 .44772-1 1v30c0 .5523.44772 1 1 1h30c.5523 0 1-.4477 1-1v-30c0-.55229-.4477-1-1-1zm-30-2c-1.65685 0-3 1.34315-3 3v30c0 1.6569 1.34315 3 3 3h30c1.6569 0 3-1.3431 3-3v-30c0-1.65685-1.3431-3-3-3z"/></g></svg>

<svg width="48" height="48" viewBox="0 0 48 48" fill="none" xmlns="http://www.w3.org/2000/svg">
<path fill-rule="evenodd" clip-rule="evenodd" d="M21 10C19.8954 10 19 10.8954 19 12H16C14.8954 12 14 12.8954 14 14V36C14 37.1046 14.8954 38 16 38H32C33.1046 38 34 37.1046 34 36V14C34 12.8954 33.1046 12 32 12H29C29 10.8954 28.1046 10 27 10H21ZM21 12H27V14H21V12ZM24.5572 28L22.0638 34.649C21.8699 35.1661 22.1319 35.7425 22.649 35.9364C23.1661 36.1304 23.7425 35.8684 23.9365 35.3512L25.1948 31.9955H27.8054L29.0638 35.3512C29.2577 35.8684 29.8341 36.1304 30.3512 35.9364C30.8684 35.7425 31.1304 35.1661 30.9365 34.649L28.4431 28H31.3013C31.8536 28 32.3013 27.5523 32.3013 27C32.3013 26.4477 31.8536 26 31.3013 26H27.0191C27.0064 25.9998 26.9936 25.9998 26.9809 26H26.0193C26.0066 25.9998 25.9939 25.9998 25.9812 26H21.0002C20.448 26 20.0002 26.4477 20.0002 27C20.0002 27.5523 20.448 28 21.0002 28H24.5572ZM31 19.24H17V17.24H31V19.24ZM17 23.4H22V21.4H17V23.4ZM28.5 23C28.5 24.1046 27.6046 25 26.5 25C25.3954 25 24.5 24.1046 24.5 23C24.5 21.8954 25.3954 21 26.5 21C27.6046 21 28.5 21.8954 28.5 23Z" fill="#333333"/>
<path fill-rule="evenodd" clip-rule="evenodd" d="M39 8H9C8.44771 8 8 8.44772 8 9V39C8 39.5523 8.44772 40 9 40H39C39.5523 40 40 39.5523 40 39V9C40 8.44771 39.5523 8 39 8ZM9 6C7.34315 6 6 7.34315 6 9V39C6 40.6569 7.34315 42 9 42H39C40.6569 42 42 40.6569 42 39V9C42 7.34315 40.6569 6 39 6H9Z" fill="#333333"/>
</svg>
